X:377
T:Reel 377
M:4/4
K:Dmaj
L:1/8
A,2|DFED C2EG|FDFA d2Ad|BGED CDEG||FDEC DCB,A,:||2FDEC D2AG| (3FED AD BDAD| (3FED AB A2AG| (3FED AD BG (3ECC |ECCD EFGE| (3FGF AD BDAD| (3FED AD BcAB| (3cBA  (3GFE  (3FGA BG|FDEC D2|
